X:7231
T:Hornpipe. JC.180
M:C|
L:1/8
Q:160
S:John Clare,Poet,Helpstone (1793-1864)
R:Hornpipe
O:England
A:Northamptonshire
N:
Z:P Headford
K:D
A2|dcdB AGFA|Bdced2ef|gf bagf ed|cdecA3A|!
BGBd cAce|fdfa dcBA|dfeg fdec|d2d2d2:|!
|:fg|agfg edcd|BGFGE2ga|bgfg edcd|ecdBA3A|!
BGBd cAce|fefa dcBA|dfeg fdec|d2d2d2:|]
